X:1960
T:Hymn
T:Go tell Aunt Rhody
C:Jean-Jacques Rousseau
O:France
R:Hymn
Z:Transcribed by Frank Nordberg - http://www.musicaviva.com
F:http://abc.musicaviva.com/tunes/rousseau-jean-jacques/rousseau-hymn.abc
V:1 Program 1 6 %Harpsichord
V:2 Program 1 6 bass %Harpsichord
M:C
L:1/4
Q:1/4=108
K:F
V:1
AA/G/ FF|GG A/G/F|cc/B/ AA|G/F/G/A/"^Fine"F2:|
V:2
F,2A,2|C2F,2|A,2F,2|C2F,2:|
%
V:1
AA/B/ cc|dd c/B/A|AA/B/ cc|dd "^D.C. al Fine"c2|]
V:2
F,2A,2|B,2A,2|F,2A,2|B2,A,2|]
W:
W:
W:  From Musica Viva - http://www.musicaviva.com
W:  the Internet center for free sheet music downloads.
